src/catppuccin-macchiato-dark-cursors/zoom-in_24.svg

<?xml version="1.0" encoding="UTF-8" standalone="no"?>
<svg
   id="svg2"
   width="24"
   height="24"
   version="1.1"
   sodipodi:docname="zoom-in_24.svg"
   inkscape:version="1.1.2 (0a00cf5339, 2022-02-04)"
   xmlns:inkscape="http://www.inkscape.org/namespaces/inkscape"
   xmlns:sodipodi="http://sodipodi.sourceforge.net/DTD/sodipodi-0.dtd"
   xmlns="http://www.w3.org/2000/svg"
   xmlns:svg="http://www.w3.org/2000/svg">
  <sodipodi:namedview
     id="namedview16"
     pagecolor="#ffffff"
     bordercolor="#666666"
     borderopacity="1.0"
     inkscape:pageshadow="2"
     inkscape:pageopacity="0.0"
     inkscape:pagecheckerboard="0"
     showgrid="true"
     inkscape:zoom="45.679098"
     inkscape:cx="10.967817"
     inkscape:cy="10.551872"
     inkscape:window-width="1896"
     inkscape:window-height="1020"
     inkscape:window-x="9"
     inkscape:window-y="45"
     inkscape:window-maximized="1"
     inkscape:current-layer="svg2">
    <inkscape:grid
       type="xygrid"
       id="grid1187" />
  </sodipodi:namedview>
  <defs
     id="defs4">
    <filter
       id="filter859"
       style="color-interpolation-filters:sRGB"
       width="1.096"
       height="1.096"
       x="-0.050000001"
       y="-0.050000001">
      <feGaussianBlur
         id="feGaussianBlur861"
         stdDeviation=".3" />
    </filter>
    <filter
       id="filter891"
       style="color-interpolation-filters:sRGB"
       width="1.1"
       height="1.0930001"
       x="-0.050000001"
       y="-0.050000001">
      <feGaussianBlur
         id="feGaussianBlur893"
         stdDeviation=".281" />
    </filter>
    <filter
       id="filter874"
       style="color-interpolation-filters:sRGB"
       width="1.123"
       height="1.117"
       x="-0.059999999"
       y="-0.059999999">
      <feGaussianBlur
         id="feGaussianBlur876"
         stdDeviation=".563" />
    </filter>
    <filter
       id="filter827"
       style="color-interpolation-filters:sRGB"
       width="1.1472727"
       height="1.1408696"
       x="-0.073636368"
       y="-0.070434786">
      <feGaussianBlur
         id="feGaussianBlur829"
         stdDeviation=".675" />
    </filter>
    <filter
       inkscape:collect="always"
       style="color-interpolation-filters:sRGB"
       id="filter2154"
       x="-0.024211766"
       y="-0.022866664"
       width="1.0484235"
       height="1.0457333">
      <feGaussianBlur
         inkscape:collect="always"
         stdDeviation="0.17150001"
         id="feGaussianBlur2156" />
    </filter>
  </defs>
  <path
     style="color:#000000;opacity:0.1;fill:#000000;fill-opacity:1;stroke-linecap:round;stroke-linejoin:round;-inkscape-stroke:none;filter:url(#filter2154)"
     d="m 11,3.499997 c -3.5780027,0 -6.5,2.9219973 -6.5,6.5 0,3.578005 2.9219973,6.500002 6.5,6.500002 a 1.0001,1.0001 0 0 0 0.0039,0 c 1.094397,-0.0046 2.12877,-0.360686 3.078125,-0.884766 l 5.001953,5.554688 a 1.0001,1.0001 0 0 0 0.744147,0.330078 H 20.5 a 1.0001,1.0001 0 0 0 1,-1 V 19.753905 A 1.0001,1.0001 0 0 0 21.244141,19.085936 L 16.289063,13.580077 C 17.011095,12.514267 17.496923,11.303355 17.5,10.00195 A 1.0001,1.0001 0 0 0 17.5,10 C 17.5,6.4219974 14.578003,3.5000001 11,3.5000001 Z m 0,2 c 2.497124,0 4.5,2.0028765 4.5,4.5 -0.0031,1.121638 -0.423761,2.200423 -1.181641,3.027346 a 1.0001,1.0001 0 0 0 -0.0039,0.607422 1.0001,1.0001 0 0 0 -0.609375,-0.05664 c -0.77857,0.593884 -1.727868,0.917331 -2.707037,0.921874 C 8.5018553,14.498928 6.5,12.496455 6.5,9.999997 c 0,-2.4971235 2.0028765,-4.5 4.5,-4.5 z"
     id="path2116" />
  <path
     style="color:#000000;fill:#CAD3F5;stroke-linecap:round;stroke-linejoin:round;-inkscape-stroke:none;fill-opacity:1"
     d="M 10.5,3 C 6.9219973,3 4,5.9219973 4,9.5 4,13.078003 6.9219973,16 10.5,16 a 1.0001,1.0001 0 0 0 0.0039,0 c 1.094397,-0.0046 2.12877,-0.360686 3.078125,-0.884766 l 5.001953,5.554688 A 1.0001,1.0001 0 0 0 19.328125,21 H 20 a 1.0001,1.0001 0 0 0 1,-1 V 19.253906 A 1.0001,1.0001 0 0 0 20.744141,18.585937 L 15.789063,13.080078 C 16.511095,12.014268 16.996923,10.803356 17,9.5019531 A 1.0001,1.0001 0 0 0 17,9.5 C 17,5.9219973 14.078003,3 10.5,3 Z m 0,2 c 2.497124,0 4.5,2.0028765 4.5,4.5 -0.0031,1.121636 -0.423761,2.200421 -1.181641,3.027344 a 1.0001,1.0001 0 0 0 -0.0039,0.607422 1.0001,1.0001 0 0 0 -0.609375,-0.05664 C 12.426514,13.67201 11.477216,13.995457 10.498047,14 8.0018553,13.998929 6,11.996456 6,9.5 6,7.0028765 8.0028765,5 10.5,5 Z"
     id="path2056" />
  <path
     id="path1211"
     style="opacity:1;fill:#24273A;stroke:none;stroke-width:2;stroke-linecap:round;stroke-linejoin:round;fill-opacity:1"
     d="M 10.5 4 A 5.5 5.5 0 0 0 5 9.5 A 5.5 5.5 0 0 0 10.5 15 A 5.5 5.5 0 0 0 13.8125 13.873047 L 19.328125 20 L 20 20 L 20 19.253906 L 14.554688 13.203125 A 5.5 5.5 0 0 0 16 9.5 A 5.5 5.5 0 0 0 10.5 4 z " />
  <path
     id="circle838"
     style="fill:#CAD3F5;fill-opacity:1;stroke:none;stroke-width:1.7347;stroke-linecap:round;stroke-linejoin:round;stroke-miterlimit:4;stroke-dasharray:none;stroke-dashoffset:0;stroke-opacity:1;paint-order:normal"
     d="M 10,7 V 9 H 7.9999998 v 1 H 10 v 2 h 1 v -2 h 2 V 9 H 11 V 7 Z"
     sodipodi:nodetypes="ccccccccccccc" />
</svg>

<svg xmlns="http://www.w3.org/2000/svg" width="24" height="24">
    <defs>
        <filter id="a" width="1.048" height="1.046" x="-.024" y="-.023" style="color-interpolation-filters:sRGB">
            <feGaussianBlur stdDeviation=".172"/>
        </filter>
    </defs>
    <path d="M11 3.5c-3.578 0-6.5 2.922-6.5 6.5s2.922 6.5 6.5 6.5h.004c1.094-.005 2.129-.36 3.078-.885l5.002 5.555a1 1 0 0 0 .744.33h.672a1 1 0 0 0 1-1v-.746a1 1 0 0 0-.256-.668L16.29 13.58c.722-1.066 1.208-2.277 1.211-3.578V10c0-3.578-2.922-6.5-6.5-6.5m0 2c2.497 0 4.5 2.003 4.5 4.5a4.5 4.5 0 0 1-1.182 3.027 1 1 0 0 0-.004.608 1 1 0 0 0-.609-.057A4.485 4.485 0 0 1 6.5 10c0-2.497 2.003-4.5 4.5-4.5" style="color:#000;opacity:.1;fill:#000;fill-opacity:1;stroke-linecap:round;stroke-linejoin:round;-inkscape-stroke:none;filter:url(#a)"/>
    <path d="M10.5 3C6.922 3 4 5.922 4 9.5S6.922 16 10.5 16h.004c1.094-.005 2.129-.36 3.078-.885l5.002 5.555a1 1 0 0 0 .744.33H20a1 1 0 0 0 1-1v-.746a1 1 0 0 0-.256-.668L15.79 13.08c.722-1.066 1.208-2.277 1.211-3.578V9.5C17 5.922 14.078 3 10.5 3m0 2C12.997 5 15 7.003 15 9.5a4.5 4.5 0 0 1-1.182 3.027 1 1 0 0 0-.004.608 1 1 0 0 0-.609-.057A4.485 4.485 0 0 1 6 9.5C6 7.003 8.003 5 10.5 5" style="color:#000;fill:#cad3f5;stroke-linecap:round;stroke-linejoin:round;-inkscape-stroke:none;fill-opacity:1"/>
    <path d="M10.5 4A5.5 5.5 0 0 0 5 9.5a5.5 5.5 0 0 0 5.5 5.5 5.5 5.5 0 0 0 3.313-1.127L19.328 20H20v-.746l-5.445-6.05A5.5 5.5 0 0 0 16 9.5 5.5 5.5 0 0 0 10.5 4" style="opacity:1;fill:#24273a;stroke:none;stroke-width:2;stroke-linecap:round;stroke-linejoin:round;fill-opacity:1"/>
    <path d="M10 7v2H8v1h2v2h1v-2h2V9h-2V7Z" style="fill:#cad3f5;fill-opacity:1;stroke:none;stroke-width:1.7347;stroke-linecap:round;stroke-linejoin:round;stroke-miterlimit:4;stroke-dasharray:none;stroke-dashoffset:0;stroke-opacity:1;paint-order:normal"/>
</svg>
